!!!OTL: FRUEH BEI DEM ERSTEN SONNENSTRAHL
!!!ARE: Europa, Mitteleuropa, Deutschland
!!!SCT: E1796
!!!YEM: Copyright 1995, estate of Helmut Schaffrath.
**kern
*ICvox
*Ivox
*M2/4
*k[f#c#]
*D:
{8d
8f#
=1
4a
4a
=2
8a
8b
8a
8f#
=3
4d
4f#
=4
4.f#}
{8f#
=5
4e
4f#
=6
4g
4a
=7
4g
4f#
=8
4.r}
{8a
=9
4a
4f#
=10
4.dd
8cc#
=11
4.cc#
8b
=12
4.b}
{8b
=13
4.a
8b
=14
8a
8g
8f#
8e
=15
4e
4d
=16
4r}
{4e
=17
4e
4a
=18
4a
4cc#
=19
8cc#
8b
8dd
8cc#
=20
4b}
{4e
=21
4e
4b
=22
4b
4dd
=23
8dd
8cc#
8ee
8dd
=24
4.cc#}
{8a
=25
4a
4f#
=26
4.dd
8cc#
=27
4cc#
4b
=28
4.r}
{8b
=29
4.a
8b
=30
8a
8g
8f#
8e
=31
4e
4d
=32
4r}
==
!!!AGN: Soldaten - Lied
!!!ONB: ESAC (Essen Associative Code) Database: ERK3
!!!AMT: simple duple
!!!AIN: vox
!!!EED: Helmut Schaffrath
!!!EEV: 1.0
*-
